public/img/star--yellow.svg

<svg width="18" height="18" viewBox="0 0 18 18" fill="none" xmlns="http://www.w3.org/2000/svg">
<g filter="url(#filter0_d_216_4582)">
<path d="M8.13589 1.48359C8.52162 0.821321 9.47838 0.821321 9.86411 1.48359L12.011 5.16962C12.1523 5.41222 12.3891 5.58425 12.6635 5.64367L16.8326 6.54646C17.5816 6.70867 17.8773 7.6186 17.3666 8.1901L14.5244 11.371C14.3374 11.5803 14.2469 11.8587 14.2752 12.138L14.7049 16.382C14.7821 17.1445 14.0081 17.7069 13.3067 17.3978L9.40325 15.6777C9.14634 15.5645 8.85366 15.5645 8.59675 15.6777L4.69326 17.3978C3.99192 17.7069 3.21789 17.1445 3.2951 16.382L3.7248 12.138C3.75308 11.8587 3.66264 11.5803 3.47558 11.371L0.633386 8.1901C0.122732 7.6186 0.418384 6.70867 1.16744 6.54646L5.3365 5.64367C5.61089 5.58425 5.84767 5.41222 5.98897 5.16962L8.13589 1.48359Z" fill="#FFCE21"/>
</g>
<defs>
<filter id="filter0_d_216_4582" x="0.378418" y="0.986816" width="17.2432" height="16.4976" filterUnits="userSpaceOnUse" color-interpolation-filters="sRGB">
<feFlood flood-opacity="0" result="BackgroundImageFix"/>
<feColorMatrix in="SourceAlpha" type="matrix" values="0 0 0 0 0 0 0 0 0 0 0 0 0 0 0 0 0 0 127 0" result="hardAlpha"/>
<feMorphology radius="5" operator="erode" in="SourceAlpha" result="effect1_dropShadow_216_4582"/>
<feOffset/>
<feGaussianBlur stdDeviation="2.5"/>
<feComposite in2="hardAlpha" operator="out"/>
<feColorMatrix type="matrix" values="0 0 0 0 1 0 0 0 0 0.807843 0 0 0 0 0.129412 0 0 0 0.25 0"/>
<feBlend mode="normal" in2="BackgroundImageFix" result="effect1_dropShadow_216_4582"/>
<feBlend mode="normal" in="SourceGraphic" in2="effect1_dropShadow_216_4582" result="shape"/>
</filter>
</defs>
</svg>

<svg width="18" height="18" fill="none" xmlns="http://www.w3.org/2000/svg"><g filter="url(#a)"><path d="M8.136 1.484a1 1 0 0 1 1.728 0l2.147 3.686a1 1 0 0 0 .653.474l4.169.902a1 1 0 0 1 .534 1.644l-2.843 3.181a1 1 0 0 0-.249.767l.43 4.244a1 1 0 0 1-1.398 1.016l-3.904-1.72a1 1 0 0 0-.806 0l-3.904 1.72a1 1 0 0 1-1.398-1.016l.43-4.244a1 1 0 0 0-.25-.767L.634 8.191a1 1 0 0 1 .534-1.645l4.17-.902a1 1 0 0 0 .652-.474l2.147-3.686Z" fill="#FFCE21"/></g><defs><filter id="a" x=".378" y=".987" width="17.243" height="16.498" filterUnits="userSpaceOnUse" color-interpolation-filters="sRGB"><feFlood flood-opacity="0" result="BackgroundImageFix"/><feColorMatrix in="SourceAlpha" values="0 0 0 0 0 0 0 0 0 0 0 0 0 0 0 0 0 0 127 0" result="hardAlpha"/><feMorphology radius="5" in="SourceAlpha" result="effect1_dropShadow_216_4582"/><feOffset/><feGaussianBlur stdDeviation="2.5"/><feComposite in2="hardAlpha" operator="out"/><feColorMatrix values="0 0 0 0 1 0 0 0 0 0.807843 0 0 0 0 0.129412 0 0 0 0.25 0"/><feBlend in2="BackgroundImageFix" result="effect1_dropShadow_216_4582"/><feBlend in="SourceGraphic" in2="effect1_dropShadow_216_4582" result="shape"/></filter></defs></svg>
